sprites/streets-v8/_svg/garden-11.svg

<?xml version="1.0" encoding="UTF-8" standalone="no"?>
<svg
   xmlns:dc="http://purl.org/dc/elements/1.1/"
   xmlns:cc="http://creativecommons.org/ns#"
   xmlns:rdf="http://www.w3.org/1999/02/22-rdf-syntax-ns#"
   xmlns:svg="http://www.w3.org/2000/svg"
   xmlns="http://www.w3.org/2000/svg"
   id="svg2"
   width="19"
   height="19"
   viewBox="0 0 19 19"
   version="1.1">
  <metadata
     id="metadata14">
    <rdf:RDF>
      <cc:Work
         rdf:about="">
        <dc:format>image/svg+xml</dc:format>
        <dc:type
           rdf:resource="http://purl.org/dc/dcmitype/StillImage" />
      </cc:Work>
    </rdf:RDF>
  </metadata>
  <defs
     id="defs12" />
  <ellipse
     id="ellipse4"
     ry="9.5"
     rx="9.5"
     cy="9.5"
     cx="9.5"
     style="fill:#ffffff;stroke:none;" />
  <ellipse
     id="ellipse6"
     rx="8.5"
     ry="8.5"
     cy="9.5"
     cx="9.5"
     style="fill:#a9a199;stroke:none;" />
  <g
     id="g8"
     transform="translate(4,4)">
      <defs     id="defs4766" />  <metadata     id="metadata4769">    <rdf:RDF>      <cc:Work         rdf:about="">        <dc:format>image/svg+xml</dc:format>        <dc:type           rdf:resource="http://purl.org/dc/dcmitype/StillImage" />        <dc:title />      </cc:Work>    </rdf:RDF>  </metadata>  <path     id="path8375"     d="M 5.5,0 C 4,0 2.5,0.5 2.5,2 l 0,1.5 C 2.5,4.35452 3,5.301078 4,5.5 4.81732,5.662583 6.5,5.333731 6.5,3.5 6.5,2.666667 5.5,2 4.5,2 4,2 3.5,2 3.5,1.5 3.5,1.122348 4,1 4.5,1 L 6,1 C 6.292461,1 7,0.779297 6.5,0.279297 6.5,0.279297 5.989296,0 5.5,0 Z M 8,0.75 C 7.75,0.75 7.5,1 7.5,1.5 7.5,2 7,2 7,2 7,2 6.499809,2.00038 6.751953,2.515625 6.873718,2.764446 7,3.086086 7,3.5 7,4.534147 6.64338,5.113223 6,5.5 5.168281,6 6,6 6,6 7.410675,6 8.5,4.722225 8.5,3.5 l 0,-2 C 8.5,1 8.25,0.75 8,0.75 Z M 5,6.5 5,10 C 4.388889,8.777778 2.833333,7.277778 1,8.5 1,8.5 2.444444,11 5.5,11 8.555555,11 10,8.5 10,8.5 8.166666,7.277778 6.611111,8.777778 6,10 L 6,6.5 Z"     style="fill:#ffffff;fill-opacity:1" />
  </g>
</svg>

<?xml version="1.0" encoding="utf-8"?>
<!-- Generator: Adobe Illustrator 17.1.0, SVG Export Plug-In . SVG Version: 6.00 Build 0)  -->
<!DOCTYPE svg PUBLIC "-//W3C//DTD SVG 1.1//EN" "http://www.w3.org/Graphics/SVG/1.1/DTD/svg11.dtd">
<svg version="1.1"
	 id="svg2" xmlns:svg="http://www.w3.org/2000/svg" xmlns:cc="http://creativecommons.org/ns#" xmlns:dc="http://purl.org/dc/elements/1.1/" xmlns:rdf="http://www.w3.org/1999/02/22-rdf-syntax-ns#"
	 xmlns="http://www.w3.org/2000/svg" xmlns:xlink="http://www.w3.org/1999/xlink" x="0px" y="0px" width="19px" height="19px"
	 viewBox="0 0 19 19" enable-background="new 0 0 19 19" xml:space="preserve">
<ellipse id="ellipse4" fill="#FFFFFF" cx="9.5" cy="9.5" rx="9.5" ry="9.5"/>
<ellipse id="ellipse6" fill="#A9A199" cx="9.5" cy="9.5" rx="8.5" ry="8.5"/>
<g id="g8" transform="translate(4,4)">
	<path id="path8375" fill="#FFFFFF" d="M5.5,0c-1.5,0-3,0.5-3,2v1.5c0,0.9,0.5,1.8,1.5,2c0.8,0.2,2.5-0.2,2.5-2c0-0.8-1-1.5-2-1.5
		c-0.5,0-1,0-1-0.5C3.5,1.1,4,1,4.5,1H6c0.3,0,1-0.2,0.5-0.7C6.5,0.3,6,0,5.5,0z M8,0.8C7.8,0.8,7.5,1,7.5,1.5S7,2,7,2
		S6.5,2,6.8,2.5C6.9,2.8,7,3.1,7,3.5c0,1-0.4,1.6-1,2C5.2,6,6,6,6,6c1.4,0,2.5-1.3,2.5-2.5v-2C8.5,1,8.2,0.8,8,0.8z M5,6.5V10
		C4.4,8.8,2.8,7.3,1,8.5c0,0,1.4,2.5,4.5,2.5S10,8.5,10,8.5C8.2,7.3,6.6,8.8,6,10V6.5H5z"/>
</g>
</svg>
